!!!COM: Palestrina, Giovanni Perluigi da
!!!OPR: Missa In festis Apostolorum (II)
!!!OMD: Credo
!!!OTL: Et iterum
**kern	**kern	**kern	**kern	**kern
*Ibass	*Itenor	*Itenor	*Icalto	*Icant
!Bassus	!Tenor 2	!Tenor 1	!Altus	!Cantus
*clefF4	*clefGv2	*clefGv2	*clefG2	*clefG2
*k[]	*k[]	*k[]	*k[]	*k[]
*D:dor	*D:dor	*D:dor	*D:dor	*D:dor
*M4/2	*M4/2	*M4/2	*M4/2	*M4/2
=113	=113	=113	=113	=113
0r	0r	1r	0r	1a
.	.	2r	.	2g
.	.	2d	.	2f
=114	=114	=114	=114	=114
0r	0r	2c	1g	2e
.	.	2B	.	2d
.	.	2A	2f	2c
.	.	2G	2e	2g
=115	=115	=115	=115	=115
0r	0r	1F	2d	1a
.	.	.	2c	.
.	.	1G	4B	1g
.	.	.	4c	.
.	.	.	[2d	.
=116	=116	=116	=116	=116
0r	0r	1A	2d]	2.e
.	.	.	2c#	.
.	.	.	.	4f
.	.	1G	2d	4g
.	.	.	.	4f
.	.	.	[2e	4e
.	.	.	.	4d
=117	=117	=117	=117	=117
1r	0r	2A	2e]	2c
.	.	2B-	1d	2d
2r	.	1A	.	1e
2A	.	.	2c	.
=118	=118	=118	=118	=118
2G	1d	2r	2B	0r
2F	.	2A	2A	.
2E	2c	2G	1r	.
2D	2B	2F	.	.
=119	=119	=119	=119	=119
1C	2A	2E	1e	0r
.	2G	2c	.	.
1D	1F	2A	2.d	.
.	.	2A	.	.
.	.	.	4c	.
=120	=120	=120	=120	=120
1E	1G	4G	2B	1r
.	.	4A	.	.
.	.	4B	2e	.
.	.	4c	.	.
1D	[1A	1d	2f	2r
.	.	.	2f	2a
=121	=121	=121	=121	=121
1E	2A]	0r	1e	2cc
.	2G	.	.	2.b
1F	1A	.	2c	.
.	.	.	.	4a
.	.	.	[2d	[2a
=122	=122	=122	=122	=122
1G	1B-	1r	2d]	2a]
.	.	.	2e	2g
1D	[1A	2r	1f	1a
.	.	[2d	.	.
=123	=123	=123	=123	=123
0r	1A]	4d]	1.e	1a
.	.	4c	.	.
.	.	1c	.	.
.	1r	.	.	1g
.	.	2B	2d	.
=124	=124	=124	=124	=124
0r	0r	2A	2e	1a
.	.	2F	2.f	.
.	.	1c	.	1g
.	.	.	8e	.
.	.	.	8d	.
.	.	.	2e	.
=125	=125	=125	=125	=125
0r	2r	2d	1a	1f
.	2.d	2D	.	.
.	.	2E	[1g	1e
.	4c	.	.	.
.	[2c	2D	.	.
=126	=126	=126	=126	=126
0r	2c]	1G	2g]	1d
.	2B	.	2d	.
.	2A	2r	2e	1c
.	2F	[2c	2f	.
=127	=127	=127	=127	=127
0r	2c	2c]	2.g	1e
.	4C	2c	.	.
.	4D	.	4f	.
.	4E	2c	2e	1g
.	4F	.	.	.
.	2G	2B	2d	.
=128	=128	=128	=128	=128
0r	4F	2c	1f	1a
.	4G	.	.	.
.	4A	1c	.	.
.	4B	.	.	.
.	2c	.	2e	1g
.	[2d	2B	2d	.
=129	=129	=129	=129	=129
1r	2d]	2A	1e	0a
.	2c#	2A	.	.
2r	2d	2D	1f#	.
[2D	[2A	[2d	.	.
=130	=130	=130	=130	=130
2D]	2A]	2d]	0r	0r
2E	2G	2c	.	.
2F	2A	2d	.	.
2G	2B	2e	.	.
=131	=131	=131	=131	=131
1A	1c	2f	0r	0r
.	.	1e	.	.
2G	2B	.	.	.
2F	2A	[2d	.	.
=132	=132	=132	=132	=132
1E	1G	2d]	1r	1r
.	.	2c#	.	.
1D	1A	2d	2r	1d
.	.	2D	[2d	.
=133	=133	=133	=133	=133
0r	0r	1A	2d]	1e
.	.	.	2c	.
.	.	2D	2d	2f
.	.	2C	2e	2g
=134	=134	=134	=134	=134
0r	0r	4F	1f	1a
.	.	4G	.	.
.	.	4A	.	.
.	.	4B	.	.
.	.	2c	2e	2g
.	.	2d	[2d	2f
=135	=135	=135	=135	=135
1r	1r	2G	2d]	1e
.	.	1A	2c#	.
2.D	2r	.	2d	2d
.	[2A	2D	2f	[2a
4E	.	.	.	.
=136	=136	=136	=136	=136
2F	2A]	0r	2c	2a]
2E	2B	.	1e	2g
2A	2c	.	.	2a
2G	2d	.	2g	2b
=137	=137	=137	=137	=137
1C	1e	1r	1g	1cc
2GG	2d	2r	2g	2b
2AA	2c	2A	2e	2a
=138	=138	=138	=138	=138
0E	2B	2B	0e	2g#
.	2A	2c	.	1a
.	1B	2B	.	.
.	.	2E	.	2g#
=139	=139	=139	=139	=139
[0AA	[0A	[0E	[0c#	[0a
=140	=140	=140	=140	=140
0AA]	0A]	0E]	0c#]	0a]
*-	*-	*-	*-	*-
!!!CDT: 1525/^1526/-1594/2/2
!!!OCY: Italia
!!!AGN: Mass (Paraphrase)
!!!AST: renaissance, vocal
!!!ASW: Gregorian Mass
!!!PWK: Masses, Book Mantuan II
!!!RNB: Cadence finals: A
!!!YOR: Le Opere Complete, v. 19, p. 1
!!!YOO: Rome, Italy: Fratelli Scalera
!!!END: 1992//
!!!EED: John Miller
!!!YEC: Copyright 2000, John Miller
!!!YEN: United States of America
!!!YEM: Rights to all derivative electronic formats reserved.
!!!YEM: Refer to licensing agreement for further details.
!!!YEM: This file must be accompanied by the licensing agreement.
!!!YEM: A copy of the licensing agreement may be found at http://www.music-cog.ohio-state.edu/HumdrumDatabases/Palestrina/license.txt
!!!EMD: converted to Humdrum by Bret Aarden
